images/50415358.svg

<?xml version="1.0" encoding="UTF-8"?>
<svg xmlns="http://www.w3.org/2000/svg" xmlns:xlink="http://www.w3.org/1999/xlink" width="300pt" height="300pt" viewBox="0 0 300 300" version="1.1">
<defs>
<g>
<symbol overflow="visible" id="glyph0-0">
<path style="stroke:none;" d="M 0.453125 1.59375 L 0.453125 -6.34375 L 4.953125 -6.34375 L 4.953125 1.59375 Z M 0.953125 1.09375 L 4.453125 1.09375 L 4.453125 -5.84375 L 0.953125 -5.84375 Z M 0.953125 1.09375 "/>
</symbol>
<symbol overflow="visible" id="glyph0-1">
<path style="stroke:none;" d="M 3.546875 -5.953125 C 2.898438 -5.953125 2.382812 -5.710938 2 -5.234375 C 1.625 -4.753906 1.4375 -4.101562 1.4375 -3.28125 C 1.4375 -2.445312 1.625 -1.789062 2 -1.3125 C 2.382812 -0.832031 2.898438 -0.59375 3.546875 -0.59375 C 4.191406 -0.59375 4.703125 -0.832031 5.078125 -1.3125 C 5.453125 -1.789062 5.640625 -2.445312 5.640625 -3.28125 C 5.640625 -4.101562 5.453125 -4.753906 5.078125 -5.234375 C 4.703125 -5.710938 4.191406 -5.953125 3.546875 -5.953125 Z M 3.546875 -6.6875 C 4.460938 -6.6875 5.195312 -6.375 5.75 -5.75 C 6.300781 -5.132812 6.578125 -4.3125 6.578125 -3.28125 C 6.578125 -2.238281 6.300781 -1.410156 5.75 -0.796875 C 5.195312 -0.179688 4.460938 0.125 3.546875 0.125 C 2.617188 0.125 1.878906 -0.179688 1.328125 -0.796875 C 0.773438 -1.410156 0.5 -2.238281 0.5 -3.28125 C 0.5 -4.3125 0.773438 -5.132812 1.328125 -5.75 C 1.878906 -6.375 2.617188 -6.6875 3.546875 -6.6875 Z M 3.546875 -6.6875 "/>
</symbol>
<symbol overflow="visible" id="glyph0-2">
<path style="stroke:none;" d="M 0.890625 -6.5625 L 2.078125 -6.5625 L 4.984375 -1.078125 L 4.984375 -6.5625 L 5.84375 -6.5625 L 5.84375 0 L 4.65625 0 L 1.75 -5.484375 L 1.75 0 L 0.890625 0 Z M 0.890625 -6.5625 "/>
</symbol>
<symbol overflow="visible" id="glyph0-3">
<path style="stroke:none;" d="M 0.890625 -6.5625 L 1.765625 -6.5625 L 1.765625 -3.875 L 5 -3.875 L 5 -6.5625 L 5.890625 -6.5625 L 5.890625 0 L 5 0 L 5 -3.125 L 1.765625 -3.125 L 1.765625 0 L 0.890625 0 Z M 0.890625 -6.5625 "/>
</symbol>
<symbol overflow="visible" id="glyph1-0">
<path style="stroke:none;" d="M 0.40625 1.421875 L 0.40625 -5.640625 L 4.40625 -5.640625 L 4.40625 1.421875 Z M 0.84375 0.96875 L 3.953125 0.96875 L 3.953125 -5.1875 L 0.84375 -5.1875 Z M 0.84375 0.96875 "/>
</symbol>
<symbol overflow="visible" id="glyph1-1">
<path style="stroke:none;" d="M 3.6875 -5.015625 L 3.6875 -2.84375 L 5.859375 -2.84375 L 5.859375 -2.171875 L 3.6875 -2.171875 L 3.6875 0 L 3.03125 0 L 3.03125 -2.171875 L 0.84375 -2.171875 L 0.84375 -2.84375 L 3.03125 -2.84375 L 3.03125 -5.015625 Z M 3.6875 -5.015625 "/>
</symbol>
</g>
</defs>
<g id="surface12473">
<rect x="0" y="0" width="300" height="300" style="fill:rgb(100%,100%,100%);fill-opacity:1;stroke:none;"/>
<path style="fill:none;stroke-width:1.2;stroke-linecap:butt;stroke-linejoin:miter;stroke:rgb(100%,0%,0%);stroke-opacity:1;stroke-miterlimit:10;" d="M 178.726562 88.265625 L 188.441406 92.828125 "/>
<path style="fill:none;stroke-width:1.2;stroke-linecap:butt;stroke-linejoin:miter;stroke:rgb(0%,0%,0%);stroke-opacity:1;stroke-miterlimit:10;" d="M 188.441406 92.828125 L 198.152344 97.390625 "/>
<path style="fill:none;stroke-width:1.2;stroke-linecap:butt;stroke-linejoin:miter;stroke:rgb(100%,0%,0%);stroke-opacity:1;stroke-miterlimit:10;" d="M 180.875 83.695312 L 190.585938 88.257812 "/>
<path style="fill:none;stroke-width:1.2;stroke-linecap:butt;stroke-linejoin:miter;stroke:rgb(0%,0%,0%);stroke-opacity:1;stroke-miterlimit:10;" d="M 190.585938 88.257812 L 200.300781 92.820312 "/>
<path style=" stroke:none;fill-rule:nonzero;fill:rgb(100%,100%,100%);fill-opacity:1;" d="M 171.800781 80.480469 L 179.800781 80.480469 L 179.800781 91.480469 L 171.800781 91.480469 Z M 171.800781 80.480469 "/>
<g style="fill:rgb(100%,0%,0%);fill-opacity:1;">
  <use xlink:href="#glyph0-1" x="171.800781" y="89.143555"/>
</g>
<path style="fill:none;stroke-width:1.2;stroke-linecap:butt;stroke-linejoin:miter;stroke:rgb(0%,0%,0%);stroke-opacity:1;stroke-miterlimit:10;" d="M 199.226562 95.105469 L 208.035156 88.976562 "/>
<path style="fill:none;stroke-width:1.2;stroke-linecap:butt;stroke-linejoin:miter;stroke:rgb(0%,0%,100%);stroke-opacity:1;stroke-miterlimit:10;" d="M 208.035156 88.976562 L 216.84375 82.84375 "/>
<path style="fill:none;stroke-width:1.2;stroke-linecap:butt;stroke-linejoin:miter;stroke:rgb(0%,0%,0%);stroke-opacity:1;stroke-miterlimit:10;" d="M 199.226562 95.105469 L 201.039062 116.492188 "/>
<path style="fill:none;stroke-width:1.2;stroke-linecap:butt;stroke-linejoin:miter;stroke:rgb(0%,0%,100%);stroke-opacity:1;stroke-miterlimit:10;" d="M 216.84375 82.84375 L 226.558594 87.40625 "/>
<path style="fill:none;stroke-width:1.2;stroke-linecap:butt;stroke-linejoin:miter;stroke:rgb(0%,0%,0%);stroke-opacity:1;stroke-miterlimit:10;" d="M 226.558594 87.40625 L 236.269531 91.96875 "/>
<path style=" stroke:none;fill-rule:nonzero;fill:rgb(100%,100%,100%);fill-opacity:1;" d="M 209.84375 77.34375 L 223.84375 77.34375 L 223.84375 88.34375 L 209.84375 88.34375 Z M 209.84375 77.34375 "/>
<g style="fill:rgb(0%,0%,100%);fill-opacity:1;">
  <use xlink:href="#glyph0-2" x="209.84375" y="86.006836"/>
  <use xlink:href="#glyph0-3" x="216.821289" y="86.006836"/>
</g>
<path style="fill:none;stroke-width:1.2;stroke-linecap:butt;stroke-linejoin:miter;stroke:rgb(0%,0%,0%);stroke-opacity:1;stroke-miterlimit:10;" d="M 237.714844 94.042969 L 246.519531 87.914062 "/>
<path style="fill:none;stroke-width:1.2;stroke-linecap:butt;stroke-linejoin:miter;stroke:rgb(100%,0%,0%);stroke-opacity:1;stroke-miterlimit:10;" d="M 246.519531 87.914062 L 255.328125 81.78125 "/>
<path style="fill:none;stroke-width:1.2;stroke-linecap:butt;stroke-linejoin:miter;stroke:rgb(0%,0%,0%);stroke-opacity:1;stroke-miterlimit:10;" d="M 234.828125 89.898438 L 243.636719 83.765625 "/>
<path style="fill:none;stroke-width:1.2;stroke-linecap:butt;stroke-linejoin:miter;stroke:rgb(100%,0%,0%);stroke-opacity:1;stroke-miterlimit:10;" d="M 243.636719 83.765625 L 252.445312 77.636719 "/>
<path style="fill:none;stroke-width:1.2;stroke-linecap:butt;stroke-linejoin:miter;stroke:rgb(0%,0%,0%);stroke-opacity:1;stroke-miterlimit:10;" d="M 236.269531 91.96875 L 238.082031 113.355469 "/>
<path style=" stroke:none;fill-rule:nonzero;fill:rgb(100%,100%,100%);fill-opacity:1;" d="M 249.886719 74.210938 L 257.886719 74.210938 L 257.886719 85.210938 L 249.886719 85.210938 Z M 249.886719 74.210938 "/>
<g style="fill:rgb(100%,0%,0%);fill-opacity:1;">
  <use xlink:href="#glyph0-1" x="249.886719" y="82.874023"/>
</g>
<path style="fill:none;stroke-width:1.2;stroke-linecap:butt;stroke-linejoin:miter;stroke:rgb(0%,0%,0%);stroke-opacity:1;stroke-miterlimit:10;" d="M 238.082031 113.355469 L 220.464844 125.617188 "/>
<path style="fill:none;stroke-width:1.2;stroke-linecap:butt;stroke-linejoin:miter;stroke:rgb(0%,0%,0%);stroke-opacity:1;stroke-miterlimit:10;" d="M 239.203125 118.726562 L 225.113281 128.539062 "/>
<path style="fill:none;stroke-width:1.2;stroke-linecap:butt;stroke-linejoin:miter;stroke:rgb(0%,0%,0%);stroke-opacity:1;stroke-miterlimit:10;" d="M 257.507812 122.484375 L 238.082031 113.355469 "/>
<path style="fill:none;stroke-width:1.2;stroke-linecap:butt;stroke-linejoin:miter;stroke:rgb(0%,0%,0%);stroke-opacity:1;stroke-miterlimit:10;" d="M 220.464844 125.617188 L 222.273438 147.003906 "/>
<path style="fill:none;stroke-width:1.2;stroke-linecap:butt;stroke-linejoin:miter;stroke:rgb(0%,0%,0%);stroke-opacity:1;stroke-miterlimit:10;" d="M 220.464844 125.617188 L 201.039062 116.492188 "/>
<path style="fill:none;stroke-width:1.2;stroke-linecap:butt;stroke-linejoin:miter;stroke:rgb(0%,0%,0%);stroke-opacity:1;stroke-miterlimit:10;" d="M 222.273438 147.003906 L 241.703125 156.128906 "/>
<path style="fill:none;stroke-width:1.2;stroke-linecap:butt;stroke-linejoin:miter;stroke:rgb(0%,0%,0%);stroke-opacity:1;stroke-miterlimit:10;" d="M 226.363281 143.347656 L 241.90625 150.648438 "/>
<path style="fill:none;stroke-width:1.2;stroke-linecap:butt;stroke-linejoin:miter;stroke:rgb(0%,0%,0%);stroke-opacity:1;stroke-miterlimit:10;" d="M 241.703125 156.128906 L 259.316406 143.871094 "/>
<path style="fill:none;stroke-width:1.2;stroke-linecap:butt;stroke-linejoin:miter;stroke:rgb(0%,0%,0%);stroke-opacity:1;stroke-miterlimit:10;" d="M 241.703125 156.128906 L 243.511719 177.515625 "/>
<path style="fill:none;stroke-width:1.2;stroke-linecap:butt;stroke-linejoin:miter;stroke:rgb(0%,0%,0%);stroke-opacity:1;stroke-miterlimit:10;" d="M 259.316406 143.871094 L 257.507812 122.484375 "/>
<path style="fill:none;stroke-width:1.2;stroke-linecap:butt;stroke-linejoin:miter;stroke:rgb(0%,0%,0%);stroke-opacity:1;stroke-miterlimit:10;" d="M 254.105469 142.15625 L 252.65625 125.046875 "/>
<path style="fill:none;stroke-width:1.2;stroke-linecap:butt;stroke-linejoin:miter;stroke:rgb(0%,0%,0%);stroke-opacity:1;stroke-miterlimit:10;" d="M 243.511719 177.515625 L 225.894531 189.777344 "/>
<path style="fill:none;stroke-width:1.2;stroke-linecap:butt;stroke-linejoin:miter;stroke:rgb(0%,0%,0%);stroke-opacity:1;stroke-miterlimit:10;" d="M 244.636719 182.886719 L 230.542969 192.699219 "/>
<path style="fill:none;stroke-width:1.2;stroke-linecap:butt;stroke-linejoin:miter;stroke:rgb(0%,0%,0%);stroke-opacity:1;stroke-miterlimit:10;" d="M 262.9375 186.644531 L 243.511719 177.515625 "/>
<path style="fill:none;stroke-width:1.2;stroke-linecap:butt;stroke-linejoin:miter;stroke:rgb(0%,0%,0%);stroke-opacity:1;stroke-miterlimit:10;" d="M 225.894531 189.777344 L 227.707031 211.164062 "/>
<path style="fill:none;stroke-width:1.2;stroke-linecap:butt;stroke-linejoin:miter;stroke:rgb(0%,0%,0%);stroke-opacity:1;stroke-miterlimit:10;" d="M 227.707031 211.164062 L 247.132812 220.289062 "/>
<path style="fill:none;stroke-width:1.2;stroke-linecap:butt;stroke-linejoin:miter;stroke:rgb(0%,0%,0%);stroke-opacity:1;stroke-miterlimit:10;" d="M 231.796875 207.507812 L 247.339844 214.808594 "/>
<path style="fill:none;stroke-width:1.2;stroke-linecap:butt;stroke-linejoin:miter;stroke:rgb(0%,0%,0%);stroke-opacity:1;stroke-miterlimit:10;" d="M 247.132812 220.289062 L 255.941406 214.160156 "/>
<path style="fill:none;stroke-width:1.2;stroke-linecap:butt;stroke-linejoin:miter;stroke:rgb(0%,0%,100%);stroke-opacity:1;stroke-miterlimit:10;" d="M 255.941406 214.160156 L 264.75 208.03125 "/>
<path style="fill:none;stroke-width:1.2;stroke-linecap:butt;stroke-linejoin:miter;stroke:rgb(0%,0%,100%);stroke-opacity:1;stroke-miterlimit:10;" d="M 264.75 208.03125 L 263.84375 197.335938 "/>
<path style="fill:none;stroke-width:1.2;stroke-linecap:butt;stroke-linejoin:miter;stroke:rgb(0%,0%,0%);stroke-opacity:1;stroke-miterlimit:10;" d="M 263.84375 197.335938 L 262.9375 186.644531 "/>
<path style="fill:none;stroke-width:1.2;stroke-linecap:butt;stroke-linejoin:miter;stroke:rgb(0%,0%,100%);stroke-opacity:1;stroke-miterlimit:10;" d="M 259.535156 206.316406 L 258.8125 197.761719 "/>
<path style="fill:none;stroke-width:1.2;stroke-linecap:butt;stroke-linejoin:miter;stroke:rgb(0%,0%,0%);stroke-opacity:1;stroke-miterlimit:10;" d="M 258.8125 197.761719 L 258.089844 189.207031 "/>
<path style=" stroke:none;fill-rule:nonzero;fill:rgb(100%,100%,100%);fill-opacity:1;" d="M 261.75 202.53125 L 268.75 202.53125 L 268.75 213.53125 L 261.75 213.53125 Z M 261.75 202.53125 "/>
<g style="fill:rgb(0%,0%,100%);fill-opacity:1;">
  <use xlink:href="#glyph0-2" x="261.75" y="211.194336"/>
</g>
<path style="fill:none;stroke-width:1.2;stroke-linecap:butt;stroke-linejoin:miter;stroke:rgb(0%,0%,0%);stroke-opacity:1;stroke-miterlimit:10;" d="M 201.039062 116.492188 L 183.421875 128.753906 "/>
<path style="fill:none;stroke-width:1.2;stroke-linecap:butt;stroke-linejoin:miter;stroke:rgb(0%,0%,0%);stroke-opacity:1;stroke-miterlimit:10;" d="M 196.390625 113.574219 L 182.296875 123.382812 "/>
<path style="fill:none;stroke-width:1.2;stroke-linecap:butt;stroke-linejoin:miter;stroke:rgb(0%,0%,0%);stroke-opacity:1;stroke-miterlimit:10;" d="M 183.421875 128.753906 L 173.707031 124.191406 "/>
<path style="fill:none;stroke-width:1.2;stroke-linecap:butt;stroke-linejoin:miter;stroke:rgb(0%,0%,100%);stroke-opacity:1;stroke-miterlimit:10;" d="M 173.707031 124.191406 L 163.996094 119.628906 "/>
<path style="fill:none;stroke-width:1.2;stroke-linecap:butt;stroke-linejoin:miter;stroke:rgb(0%,0%,100%);stroke-opacity:1;stroke-miterlimit:10;" d="M 163.996094 119.628906 L 155.1875 125.761719 "/>
<path style="fill:none;stroke-width:1.2;stroke-linecap:butt;stroke-linejoin:miter;stroke:rgb(0%,0%,0%);stroke-opacity:1;stroke-miterlimit:10;" d="M 155.1875 125.761719 L 146.378906 131.890625 "/>
<path style=" stroke:none;fill-rule:nonzero;fill:rgb(100%,100%,100%);fill-opacity:1;" d="M 156.996094 114.128906 L 170.996094 114.128906 L 170.996094 125.128906 L 156.996094 125.128906 Z M 156.996094 114.128906 "/>
<g style="fill:rgb(0%,0%,100%);fill-opacity:1;">
  <use xlink:href="#glyph0-2" x="156.996094" y="122.791992"/>
  <use xlink:href="#glyph0-3" x="163.973633" y="122.791992"/>
</g>
<path style="fill:none;stroke-width:1.2;stroke-linecap:butt;stroke-linejoin:miter;stroke:rgb(0%,0%,0%);stroke-opacity:1;stroke-miterlimit:10;" d="M 146.378906 131.890625 L 126.953125 122.765625 "/>
<path style="fill:none;stroke-width:1.2;stroke-linecap:butt;stroke-linejoin:miter;stroke:rgb(0%,0%,0%);stroke-opacity:1;stroke-miterlimit:10;" d="M 142.289062 135.550781 L 126.746094 128.25 "/>
<path style="fill:none;stroke-width:1.2;stroke-linecap:butt;stroke-linejoin:miter;stroke:rgb(0%,0%,0%);stroke-opacity:1;stroke-miterlimit:10;" d="M 148.1875 153.277344 L 146.378906 131.890625 "/>
<path style="fill:none;stroke-width:1.2;stroke-linecap:butt;stroke-linejoin:miter;stroke:rgb(0%,0%,0%);stroke-opacity:1;stroke-miterlimit:10;" d="M 126.953125 122.765625 L 109.335938 135.027344 "/>
<path style="fill:none;stroke-width:1.2;stroke-linecap:butt;stroke-linejoin:miter;stroke:rgb(0%,0%,0%);stroke-opacity:1;stroke-miterlimit:10;" d="M 109.335938 135.027344 L 111.144531 156.414062 "/>
<path style="fill:none;stroke-width:1.2;stroke-linecap:butt;stroke-linejoin:miter;stroke:rgb(0%,0%,0%);stroke-opacity:1;stroke-miterlimit:10;" d="M 114.550781 136.738281 L 115.996094 153.847656 "/>
<path style="fill:none;stroke-width:1.2;stroke-linecap:butt;stroke-linejoin:miter;stroke:rgb(0%,0%,0%);stroke-opacity:1;stroke-miterlimit:10;" d="M 111.144531 156.414062 L 130.574219 165.539062 "/>
<path style="fill:none;stroke-width:1.2;stroke-linecap:butt;stroke-linejoin:miter;stroke:rgb(0%,0%,0%);stroke-opacity:1;stroke-miterlimit:10;" d="M 111.144531 156.414062 L 93.53125 168.675781 "/>
<path style="fill:none;stroke-width:1.2;stroke-linecap:butt;stroke-linejoin:miter;stroke:rgb(0%,0%,0%);stroke-opacity:1;stroke-miterlimit:10;" d="M 130.574219 165.539062 L 148.1875 153.277344 "/>
<path style="fill:none;stroke-width:1.2;stroke-linecap:butt;stroke-linejoin:miter;stroke:rgb(0%,0%,0%);stroke-opacity:1;stroke-miterlimit:10;" d="M 129.449219 160.167969 L 143.542969 150.359375 "/>
<path style="fill:none;stroke-width:1.2;stroke-linecap:butt;stroke-linejoin:miter;stroke:rgb(0%,0%,0%);stroke-opacity:1;stroke-miterlimit:10;" d="M 93.53125 168.675781 L 83.816406 164.113281 "/>
<path style="fill:none;stroke-width:1.2;stroke-linecap:butt;stroke-linejoin:miter;stroke:rgb(0%,0%,100%);stroke-opacity:1;stroke-miterlimit:10;" d="M 83.816406 164.113281 L 74.105469 159.550781 "/>
<path style="fill:none;stroke-width:1.2;stroke-linecap:butt;stroke-linejoin:miter;stroke:rgb(0%,0%,100%);stroke-opacity:1;stroke-miterlimit:10;" d="M 74.105469 159.550781 L 73.199219 148.855469 "/>
<path style="fill:none;stroke-width:1.2;stroke-linecap:butt;stroke-linejoin:miter;stroke:rgb(0%,0%,0%);stroke-opacity:1;stroke-miterlimit:10;" d="M 73.199219 148.855469 L 72.292969 138.164062 "/>
<path style="fill:none;stroke-width:1.2;stroke-linecap:butt;stroke-linejoin:miter;stroke:rgb(0%,0%,0%);stroke-opacity:1;stroke-miterlimit:10;" d="M 56.488281 171.8125 L 65.296875 165.679688 "/>
<path style="fill:none;stroke-width:1.2;stroke-linecap:butt;stroke-linejoin:miter;stroke:rgb(0%,0%,100%);stroke-opacity:1;stroke-miterlimit:10;" d="M 65.296875 165.679688 L 74.105469 159.550781 "/>
<path style=" stroke:none;fill-rule:nonzero;fill:rgb(100%,100%,100%);fill-opacity:1;" d="M 64.105469 152.050781 L 85.105469 152.050781 L 85.105469 167.050781 L 64.105469 167.050781 Z M 64.105469 152.050781 "/>
<g style="fill:rgb(0%,0%,100%);fill-opacity:1;">
  <use xlink:href="#glyph0-2" x="64.105469" y="164.152344"/>
  <use xlink:href="#glyph0-3" x="71.083008" y="164.152344"/>
</g>
<g style="fill:rgb(0%,0%,100%);fill-opacity:1;">
  <use xlink:href="#glyph1-1" x="78.097656" y="159.269531"/>
</g>
<path style="fill:none;stroke-width:1.2;stroke-linecap:butt;stroke-linejoin:miter;stroke:rgb(0%,0%,0%);stroke-opacity:1;stroke-miterlimit:10;" d="M 72.292969 138.164062 L 52.867188 129.039062 "/>
<path style="fill:none;stroke-width:1.2;stroke-linecap:butt;stroke-linejoin:miter;stroke:rgb(0%,0%,0%);stroke-opacity:1;stroke-miterlimit:10;" d="M 52.867188 129.039062 L 35.25 141.296875 "/>
<path style="fill:none;stroke-width:1.2;stroke-linecap:butt;stroke-linejoin:miter;stroke:rgb(0%,0%,0%);stroke-opacity:1;stroke-miterlimit:10;" d="M 35.25 141.296875 L 37.0625 162.683594 "/>
<path style="fill:none;stroke-width:1.2;stroke-linecap:butt;stroke-linejoin:miter;stroke:rgb(0%,0%,0%);stroke-opacity:1;stroke-miterlimit:10;" d="M 37.0625 162.683594 L 56.488281 171.8125 "/>
</g>
</svg>

<svg xmlns="http://www.w3.org/2000/svg" xmlns:xlink="http://www.w3.org/1999/xlink" width="300pt" height="300pt" viewBox="0 0 300 300"><defs><symbol overflow="visible"><path d="M.453 1.594v-7.938h4.5v7.938zm.5-.5h3.5v-6.938h-3.5zm0 0"/></symbol><symbol overflow="visible" id="a"><path d="M3.547-5.953c-.65 0-1.164.242-1.547.72-.375.48-.563 1.13-.563 1.952 0 .835.188 1.49.563 1.967.383.48.898.72 1.547.72.644 0 1.156-.24 1.53-.72.376-.476.564-1.132.564-1.968 0-.822-.187-1.474-.562-1.954-.375-.477-.887-.72-1.53-.72zm0-.734c.914 0 1.648.312 2.203.937.55.617.828 1.438.828 2.47 0 1.042-.277 1.87-.828 2.483-.555.617-1.29.922-2.203.922-.93 0-1.668-.305-2.22-.922C.774-1.41.5-2.237.5-3.28c0-1.033.273-1.853.828-2.47.55-.625 1.29-.938 2.22-.938zm0 0"/></symbol><symbol overflow="visible" id="b"><path d="M.89-6.563H2.08l2.906 5.485v-5.484h.86V0H4.656L1.75-5.484V0H.89zm0 0"/></symbol><symbol overflow="visible" id="c"><path d="M.89-6.563h.876v2.688H5v-2.688h.89V0H5v-3.125H1.766V0H.89zm0 0"/></symbol><symbol overflow="visible"><path d="M.406 1.422V-5.64h4V1.42zM.844.97h3.11v-6.157H.843zm0 0"/></symbol><symbol overflow="visible" id="d"><path d="M3.688-5.016v2.172h2.17v.672H3.69V0H3.03v-2.172H.845v-.672H3.03v-2.172zm0 0"/></symbol></defs><g><path fill="#fff" d="M0 0h300v300H0z"/><path d="M178.727 88.266l9.714 4.562" stroke-width="1.2" stroke="#f00" stroke-miterlimit="10" fill="none"/><path d="M188.44 92.828l9.712 4.563" stroke-width="1.2" stroke="#000" stroke-miterlimit="10" fill="none"/><path d="M180.875 83.695l9.71 4.563" stroke-width="1.2" stroke="#f00" stroke-miterlimit="10" fill="none"/><path d="M190.586 88.258l9.715 4.562" stroke-width="1.2" stroke="#000" stroke-miterlimit="10" fill="none"/><path d="M171.8 80.48h8v11h-8zm0 0" fill="#fff"/><use xlink:href="#a" x="171.801" y="89.144" fill="#f00"/><path d="M199.227 95.105l8.808-6.128" stroke-width="1.2" stroke="#000" stroke-miterlimit="10" fill="none"/><path d="M208.035 88.977l8.81-6.133" stroke-width="1.2" stroke="#00f" stroke-miterlimit="10" fill="none"/><path d="M199.227 95.105l1.812 21.387" stroke-width="1.2" stroke="#000" stroke-miterlimit="10" fill="none"/><path d="M216.844 82.844l9.715 4.562" stroke-width="1.2" stroke="#00f" stroke-miterlimit="10" fill="none"/><path d="M226.56 87.406l9.71 4.563" stroke-width="1.2" stroke="#000" stroke-miterlimit="10" fill="none"/><path d="M209.844 77.344h14v11h-14zm0 0" fill="#fff"/><g fill="#00f"><use xlink:href="#b" x="209.844" y="86.007"/><use xlink:href="#c" x="216.821" y="86.007"/></g><path d="M237.715 94.043l8.805-6.13" stroke-width="1.2" stroke="#000" stroke-miterlimit="10" fill="none"/><path d="M246.52 87.914l8.808-6.133" stroke-width="1.2" stroke="#f00" stroke-miterlimit="10" fill="none"/><path d="M234.828 89.898l8.81-6.132" stroke-width="1.2" stroke="#000" stroke-miterlimit="10" fill="none"/><path d="M243.637 83.766l8.808-6.13" stroke-width="1.2" stroke="#f00" stroke-miterlimit="10" fill="none"/><path d="M236.27 91.97l1.812 21.385" stroke-width="1.2" stroke="#000" stroke-miterlimit="10" fill="none"/><path d="M249.887 74.21h8v11h-8zm0 0" fill="#fff"/><use xlink:href="#a" x="249.887" y="82.874" fill="#f00"/><path d="M238.082 113.355l-17.617 12.262M239.203 118.727l-14.09 9.812M257.508 122.484l-19.426-9.13M220.465 125.617l1.808 21.387M220.465 125.617l-19.426-9.125M222.273 147.004l19.43 9.125M226.363 143.348l15.543 7.3M241.703 156.13l17.613-12.26M241.703 156.13l1.81 21.386M259.316 143.87l-1.808-21.386M254.105 142.156l-1.45-17.11M243.512 177.516l-17.617 12.26M244.637 182.887l-14.094 9.812M262.938 186.645l-19.426-9.13M225.895 189.777l1.812 21.387M227.707 211.164l19.426 9.125M231.797 207.508l15.543 7.3M247.133 220.29l8.808-6.13" stroke-width="1.2" stroke="#000" stroke-miterlimit="10" fill="none"/><path d="M255.94 214.16l8.81-6.13M264.75 208.03l-.906-10.694" stroke-width="1.2" stroke="#00f" stroke-miterlimit="10" fill="none"/><path d="M263.844 197.336l-.906-10.69" stroke-width="1.2" stroke="#000" stroke-miterlimit="10" fill="none"/><path d="M259.535 206.316l-.723-8.554" stroke-width="1.2" stroke="#00f" stroke-miterlimit="10" fill="none"/><path d="M258.813 197.762l-.723-8.555" stroke-width="1.2" stroke="#000" stroke-miterlimit="10" fill="none"/><path d="M261.75 202.53h7v11h-7zm0 0" fill="#fff"/><use xlink:href="#b" x="261.75" y="211.194" fill="#00f"/><path d="M201.04 116.492l-17.618 12.262M196.39 113.574l-14.093 9.81M183.422 128.754l-9.715-4.563" stroke-width="1.2" stroke="#000" stroke-miterlimit="10" fill="none"/><path d="M173.707 124.19l-9.71-4.56M163.996 119.63l-8.81 6.132" stroke-width="1.2" stroke="#00f" stroke-miterlimit="10" fill="none"/><path d="M155.188 125.762l-8.81 6.13" stroke-width="1.2" stroke="#000" stroke-miterlimit="10" fill="none"/><path d="M156.996 114.13h14v11h-14zm0 0" fill="#fff"/><g fill="#00f"><use xlink:href="#b" x="156.996" y="122.792"/><use xlink:href="#c" x="163.974" y="122.792"/></g><path d="M146.38 131.89l-19.427-9.124M142.29 135.55l-15.544-7.3M148.188 153.277l-1.81-21.386M126.953 122.766l-17.617 12.26M109.336 135.027l1.81 21.387M114.55 136.738l1.446 17.11M111.145 156.414l19.43 9.125M111.145 156.414L93.53 168.676M130.574 165.54l17.613-12.263M129.45 160.168l14.093-9.81M93.53 168.676l-9.714-4.563" stroke-width="1.2" stroke="#000" stroke-miterlimit="10" fill="none"/><path d="M83.816 164.113l-9.71-4.562M74.105 159.55l-.906-10.695" stroke-width="1.2" stroke="#00f" stroke-miterlimit="10" fill="none"/><path d="M73.2 148.855l-.907-10.69M56.488 171.813l8.81-6.133" stroke-width="1.2" stroke="#000" stroke-miterlimit="10" fill="none"/><path d="M65.297 165.68l8.808-6.13" stroke-width="1.2" stroke="#00f" stroke-miterlimit="10" fill="none"/><path d="M64.105 152.05h21v15h-21zm0 0" fill="#fff"/><g fill="#00f"><use xlink:href="#b" x="64.105" y="164.152"/><use xlink:href="#c" x="71.083" y="164.152"/></g><use xlink:href="#d" x="78.098" y="159.27" fill="#00f"/><path d="M72.293 138.164l-19.426-9.125M52.867 129.04L35.25 141.296M35.25 141.297l1.813 21.387M37.063 162.684l19.425 9.13" stroke-width="1.2" stroke="#000" stroke-miterlimit="10" fill="none"/></g></svg>
